X:39
T:First of the Year
M:6/8
L:1/8
C: Paul Gitlitz 1985 
R:Jig
B:Gibltz Fancy, 141 Brand New Old Time Fiddle Tunes Vol. 2
N:Written at New Years.
K:A
"A"eAA Bcd|"A"eaf ~"G"=g3|~"D"f3~"A"e3|"G"dcd ef=g|!
"A"eAA Bcd|"G"ede =ged|"E"BEF GAB|"A"Afe A2 A :|! 
|:"A"Ace~a3|"A"aga "E"B3|EGB eBe|eBe "E7"dcB|!
"A"Ace aga|"Bm"baf B2 B|"E7"dBG fec|~"A"A3 A3:|!
|:"A"EAA "D"FAA|"E"GAB "A"Afe|EAA "D"FAA|"E"GAB "A"A2e|! 
"A"E2A "D"F2A|"E"GAB "A"cde|"D"Tfed "A"cBA|"E"EA^G "A"A3:|]
